src/icons/hds/some/youtube.svg

<svg xmlns="http://www.w3.org/2000/svg" width="24" height="24" viewBox="0 0 24 24">
  <g fill="none" fill-rule="evenodd">
    <rect width="24" height="24"/>
    <path fill="currentColor" d="M19.0714286,3 C20.0854592,3 20.9172741,3.7835277 20.9941951,4.77790504 L21,4.92857143 L21,19.0714286 C21,20.0854592 20.2164723,20.9172741 19.222095,20.9941951 L19.0714286,21 L4.92857143,21 C3.91454082,21 3.08272595,20.2164723 3.00580487,19.222095 L3,19.0714286 L3,4.92857143 C3,3.91454082 3.7835277,3.08272595 4.77790504,3.00580487 L4.92857143,3 L19.0714286,3 Z M12.4662613,7.00151381 L11.7078834,7.00026362 C10.7113313,7.00630255 7.4503876,7.04495166 6.52908466,7.29230596 C5.92668703,7.45366427 5.45224474,7.92903578 5.29121739,8.53266189 C5.06455117,9.3803072 5.01349162,10.9413981 5.00198978,11.6016981 L5.00198978,12.2173467 C5.01349162,12.8776467 5.06455117,14.4387376 5.29121739,15.286383 C5.45224474,15.8900091 5.92668703,16.3456 6.52908466,16.5069328 C7.36318609,16.730875 10.1149933,16.7837502 11.367958,16.7962346 L12.6306875,16.7962346 C13.8836522,16.7837502 16.6354594,16.730875 17.4695608,16.5069328 C18.0719585,16.3456 18.5464008,15.8900091 18.7074281,15.286383 C18.8712684,14.6736828 18.9433581,13.6882234 18.9750776,12.9396378 L18.9994944,11.8169061 C18.995787,11.3787782 18.9648914,9.4954764 18.7074281,8.53266189 C18.5464008,7.92903578 18.0719585,7.45363875 17.4695608,7.29230596 C16.596768,7.0579703 13.6240987,7.010949 12.4662613,7.00151381 L12.4662613,7.00151381 Z M10.5991873,9.7994162 L14.0995259,11.8996711 L10.5991873,13.9998226 L10.5991873,9.7994162 Z"/>
  </g>
</svg>

<svg viewBox="0 0 24 24" role="img" xmlns="http://www.w3.org/2000/svg"><g fill="none" fill-rule="evenodd"><path d="M0 0h24v24H0z"/><path d="M19.071 3a1.93 1.93 0 011.923 1.778l.006.15v14.143a1.93 1.93 0 01-1.778 1.923l-.15.006H4.928a1.93 1.93 0 01-1.923-1.778L3 19.072V4.928a1.93 1.93 0 011.778-1.923L4.928 3h14.143zm-6.605 4.002L11.708 7c-.997.006-4.258.045-5.179.292a1.755 1.755 0 00-1.238 1.24c-.226.848-.278 2.41-.289 3.07v.615c.011.66.063 2.222.29 3.07a1.73 1.73 0 001.237 1.22c.834.224 3.586.277 4.839.29h1.263c1.253-.013 4.004-.066 4.839-.29a1.73 1.73 0 001.237-1.22c.164-.613.236-1.599.268-2.347L19 11.817c-.003-.438-.034-2.322-.292-3.284a1.755 1.755 0 00-1.237-1.24c-.873-.235-3.846-.282-5.004-.291zM10.6 9.799l3.5 2.1-3.5 2.1V9.8z" fill="currentColor"/></g></svg>
